src/epub/images/titlepage.svg

<?xml version="1.0" encoding="utf-8"?>
<svg xmlns="http://www.w3.org/2000/svg" xmlns:svg="http://www.w3.org/2000/svg" version="1.1" viewBox="0 0 1400 440">
	<title>The titlepage for the Standard Ebooks edition of The Napoleon of Notting Hill, by G. K. Chesterton</title>
	<g>
		<path d="m 289.1111,68.245613 18.33919,0 0,61.754387 17.59064,0 0,-61.754387 18.33918,0 0,-15.438597 -54.26901,0 0,15.438597 z"/>
		<path d="m 372.30555,99.029239 24.88889,0 0,30.970761 17.59064,0 0,-77.192984 -17.59064,0 0,30.783626 -24.88889,0 0,-30.783626 -17.59064,0 0,77.192984 17.59064,0 0,-30.970761 z"/>
		<path d="m 475.15058,52.807016 -44.16374,0 0,77.192984 44.16374,0 0,-15.4386 -26.5731,0 0,-15.532161 25.4503,0 0,-15.438597 -25.4503,0 0,-15.345029 26.5731,0 0,-15.438597 z"/>
		<path d="m 538.4386,82.093566 0.18713,0 L 569.31579,130 l 17.59065,0 0,-77.192984 -17.59065,0 0,47.906434 -0.18713,0 -30.69006,-47.906434 -17.59065,0 0,77.192984 17.59065,0 0,-47.906434 z"/>
		<path d="m 642.35526,52.807016 -16.2807,0 L 594.91666,130 l 18.90059,0 5.7076,-15.4386 29.38012,0 5.7076,15.4386 18.90059,0 -31.1579,-77.192984 z m 0.5614,46.31579 -17.4035,0 8.60818,-22.45614 0.18714,0 8.60818,22.45614 z"/>
		<path d="m 681.43275,52.807016 0,77.192984 17.59064,0 0,-28.63158 10.5731,0 c 15.06433,0 26.38597,-8.888888 26.38597,-24.795322 0,-16 -11.32164,-23.766082 -26.38597,-23.766082 l -28.16374,0 z m 17.59064,34.526317 0,-20.491229 4.95907,0 c 6.92397,0 13.47368,2.339181 13.47368,10.292398 0,7.859649 -6.54971,10.198831 -13.47368,10.198831 l -4.95907,0 z"/>
		<path d="m 745.28802,91.356724 c 0,22.549706 16.09357,40.046786 38.92398,40.046786 22.17544,0 38.83041,-17.49708 38.83041,-40.046786 0,-22.549708 -17.40351,-39.953217 -38.83041,-39.953217 -21.23977,0 -38.92398,17.403509 -38.92398,39.953217 z m 18.99415,0 c 0,-11.508772 6.36258,-23.017544 19.92983,-23.017544 13.66082,0 19.83626,11.508772 19.83626,23.017544 0,11.508776 -5.80117,23.017546 -19.83626,23.017546 -14.40936,0 -19.92983,-11.50877 -19.92983,-23.017546 z"/>
		<path d="m 853.39476,52.807016 -17.59064,0 0,77.192984 44.16374,0 0,-15.4386 -26.5731,0 0,-61.754384 z"/>
		<path d="m 937.78219,52.807016 -44.16374,0 0,77.192984 44.16374,0 0,-15.4386 -26.5731,0 0,-15.532161 25.45029,0 0,-15.438597 -25.45029,0 0,-15.345029 26.5731,0 0,-15.438597 z"/>
		<path d="m 949.43276,91.356724 c 0,22.549706 16.09357,40.046786 38.92398,40.046786 22.17546,0 38.83046,-17.49708 38.83046,-40.046786 0,-22.549708 -17.4036,-39.953217 -38.83046,-39.953217 -21.23976,0 -38.92398,17.403509 -38.92398,39.953217 z m 18.99416,0 c 0,-11.508772 6.36257,-23.017544 19.92982,-23.017544 13.66086,0 19.83626,11.508772 19.83626,23.017544 0,11.508776 -5.8012,23.017546 -19.83626,23.017546 -14.40935,0 -19.92982,-11.50877 -19.92982,-23.017546 z"/>
		<path d="m 1057.5395,82.093566 0.1871,0 30.6901,47.906434 17.5906,0 0,-77.192984 -17.5906,0 0,47.906434 -0.1872,0 -30.69,-47.906434 -17.5907,0 0,77.192984 17.5907,0 0,-47.906434 z"/>
	</g>
	<g>
		<path d="m 244.72879,191.35672 c 0,22.54971 16.09357,40.04679 38.92398,40.04679 22.17544,0 38.83041,-17.49708 38.83041,-40.04679 0,-22.5497 -17.40351,-39.95321 -38.83041,-39.95321 -21.23977,0 -38.92398,17.40351 -38.92398,39.95321 z m 18.99416,0 c 0,-11.50877 6.36257,-23.01754 19.92982,-23.01754 13.66082,0 19.83626,11.50877 19.83626,23.01754 0,11.50878 -5.80117,23.01755 -19.83626,23.01755 -14.40936,0 -19.92982,-11.50877 -19.92982,-23.01755 z"/>
		<path d="m 379.87645,152.80702 -44.63158,0 0,77.19298 17.59065,0 0,-30.97076 24.98245,0 0,-15.4386 -24.98245,0 0,-15.34503 27.04093,0 0,-15.43859 z"/>
		<path d="m 441.4174,182.09357 0.18713,0 30.69006,47.90643 17.59064,0 0,-77.19298 -17.59064,0 0,47.90643 -0.18713,0 -30.69006,-47.90643 -17.59065,0 0,77.19298 17.59065,0 0,-47.90643 z"/>
		<path d="m 502.66739,191.35672 c 0,22.54971 16.09357,40.04679 38.92398,40.04679 22.17544,0 38.83041,-17.49708 38.83041,-40.04679 0,-22.5497 -17.40351,-39.95321 -38.83041,-39.95321 -21.23977,0 -38.92398,17.40351 -38.92398,39.95321 z m 18.99415,0 c 0,-11.50877 6.36258,-23.01754 19.92983,-23.01754 13.66082,0 19.83626,11.50877 19.83626,23.01754 0,11.50878 -5.80117,23.01755 -19.83626,23.01755 -14.40936,0 -19.92983,-11.50877 -19.92983,-23.01755 z"/>
		<path d="m 585.39401,168.24561 18.33918,0 0,61.75439 17.59065,0 0,-61.75439 18.33918,0 0,-15.43859 -54.26901,0 0,15.43859 z"/>
		<path d="m 647.41156,168.24561 18.33918,0 0,61.75439 17.59064,0 0,-61.75439 18.33918,0 0,-15.43859 -54.269,0 0,15.43859 z"/>
		<path d="m 730.60598,152.80702 -17.59064,0 0,77.19298 17.59064,0 0,-77.19298 z"/>
		<path d="m 764.48028,182.09357 0.18713,0 30.69006,47.90643 17.59065,0 0,-77.19298 -17.59065,0 0,47.90643 -0.18713,0 -30.69006,-47.90643 -17.59065,0 0,77.19298 17.59065,0 0,-47.90643 z"/>
		<path d="m 898.99342,186.77193 -35.64913,0 0,13.56725 17.77778,0 c 0,9.45029 -8.32748,14.87719 -16.74854,14.87719 -10.8538,0 -19.64912,-10.66666 -19.64912,-23.76608 0,-13.38012 8.79532,-24.14035 19.64912,-24.14035 6.83041,0 12.72515,2.71345 17.21638,9.91813 l 11.50877,-12.63158 c -6.73684,-8.14035 -16.18713,-13.19298 -29.75439,-13.19298 -21.7076,0 -37.61403,17.87134 -37.61403,40.04678 0,22.08187 16.8421,39.95322 37.61403,39.95322 15.1579,0 31.4386,-8.32749 35.64913,-27.88304 l 0,-16.74854 z"/>
		<path d="m 959.85308,199.02924 24.88889,0 0,30.97076 17.59063,0 0,-77.19298 -17.59063,0 0,30.78362 -24.88889,0 0,-30.78362 -17.59064,0 0,77.19298 17.59064,0 0,-30.97076 z"/>
		<path d="m 1036.125,152.80702 -17.5907,0 0,77.19298 17.5907,0 0,-77.19298 z"/>
		<path d="m 1069.9993,152.80702 -17.5907,0 0,77.19298 44.1638,0 0,-15.4386 -26.5731,0 0,-61.75438 z"/>
		<path d="m 1127.8136,152.80702 -17.5907,0 0,77.19298 44.1638,0 0,-15.4386 -26.5731,0 0,-61.75438 z"/>
	</g>
	<g>
		<path d="m 379.7659,357.57895 -26.73684,0 0,10.17544 13.33333,0 c 0,7.08772 -6.24561,11.15789 -12.5614,11.15789 -8.14035,0 -14.73684,-8 -14.73684,-17.82456 0,-10.03509 6.59649,-18.10526 14.73684,-18.10526 5.12281,0 9.54386,2.03508 12.91228,7.43859 l 8.63158,-9.47368 c -5.05263,-6.10526 -12.14035,-9.89474 -22.31579,-9.89474 -16.2807,0 -28.21053,13.40351 -28.21053,30.03509 0,16.5614 12.63158,29.96491 28.21053,29.96491 11.36842,0 23.57895,-6.24561 26.73684,-20.91228 l 0,-12.5614 z"/>
		<path d="m 398.52906,374.98246 c -4.42105,0 -8,3.57894 -8,8.07017 0,4.42105 3.57895,8 8,8 4.49123,0 8.07017,-3.57895 8.07017,-8 0,-4.49123 -3.57894,-8.07017 -8.07017,-8.07017 z"/>
		<path d="m 496.9534,390 -26.94737,-30.45614 23.29825,-27.4386 -16,0 -19.85965,23.64913 0,-23.64913 -13.19298,0 0,57.89474 13.19298,0 0,-24.5614 21.33333,24.5614 18.17544,0 z"/>
		<path d="m 512.48738,374.98246 c -4.42105,0 -8,3.57894 -8,8.07017 0,4.42105 3.57895,8 8,8 4.49123,0 8.07018,-3.57895 8.07018,-8 0,-4.49123 -3.57895,-8.07017 -8.07018,-8.07017 z"/>
		<path d="m 586.82402,378.07018 c -13.26316,0 -19.08772,-9.26316 -19.08772,-17.05264 0,-7.71929 5.82456,-16.98245 19.08772,-16.98245 6.73684,0 11.36842,3.57895 11.36842,3.57895 l 5.61403,-11.22807 c 0,0 -6.45614,-5.33334 -19.01754,-5.33334 -16.42105,0 -31.36842,13.47369 -31.36842,30.10527 0,16.5614 15.01754,29.89473 31.36842,29.89473 12.5614,0 19.01754,-5.33333 19.01754,-5.33333 l -5.61403,-11.22807 c 0,0 -4.63158,3.57895 -11.36842,3.57895 z"/>
		<path d="m 627.11567,366.77193 18.66666,0 0,23.22807 13.19299,0 0,-57.89474 -13.19299,0 0,23.08772 -18.66666,0 0,-23.08772 -13.19298,0 0,57.89474 13.19298,0 0,-23.22807 z"/>
		<path d="m 705.49944,332.10526 -33.12281,0 0,57.89474 33.12281,0 0,-11.57895 -19.92982,0 0,-11.64912 19.08772,0 0,-11.57895 -19.08772,0 0,-11.50877 19.92982,0 0,-11.57895 z"/>
		<path d="m 739.41721,331.05263 c -9.33333,0 -18.87719,6.8772 -18.87719,17.68421 0,6.03509 4.07017,11.4386 11.01754,14.8772 6.8772,3.43859 13.05263,5.33333 13.05263,9.54385 0,5.40351 -5.47368,5.68422 -8.35087,5.68422 -6.45614,0 -14.17544,-6.52632 -14.17544,-6.52632 l -6.59649,11.08772 c 0,0 8.21052,7.64912 21.75438,7.64912 11.29825,0 21.82456,-4.8421 21.82456,-18.66666 0,-7.57895 -7.08771,-13.05264 -13.54385,-15.78948 -6.5965,-2.80702 -12.07018,-5.12281 -12.07018,-8.35088 0,-3.15789 2.38596,-5.19298 6.87719,-5.19298 5.96491,0 11.7193,4 11.7193,4 l 5.33333,-10.52631 c 0,0 -7.43859,-5.47369 -17.96491,-5.47369 z"/>
		<path d="m 763.15735,343.68421 13.75439,0 0,46.31579 13.19298,0 0,-46.31579 13.75439,0 0,-11.57895 -40.70176,0 0,11.57895 z"/>
		<path d="m 846.73299,332.10526 -33.1228,0 0,57.89474 33.1228,0 0,-11.57895 -19.92982,0 0,-11.64912 19.08772,0 0,-11.57895 -19.08772,0 0,-11.50877 19.92982,0 0,-11.57895 z"/>
		<path d="m 859.31743,332.10526 0,57.89474 13.19298,0 0,-22.87719 17.68421,22.87719 16.77193,0 -19.92982,-23.92982 c 7.08772,-2.24562 11.85965,-8.07018 11.85965,-16.77193 0,-11.36842 -8.14035,-17.19299 -18.8772,-17.19299 l -20.70175,0 z m 13.19298,25.68421 0,-15.15789 1.54386,0 c 4.98246,0 10.94737,0.35088 10.94737,7.57895 0,7.22807 -5.96491,7.57894 -10.94737,7.57894 l -1.54386,0 z"/>
		<path d="m 908.22861,343.68421 13.75439,0 0,46.31579 13.19298,0 0,-46.31579 13.75438,0 0,-11.57895 -40.70175,0 0,11.57895 z"/>
		<path d="m 953.89196,361.01754 c 0,16.91228 12.07017,30.03509 29.19298,30.03509 16.63158,0 29.12276,-13.12281 29.12276,-30.03509 0,-16.91228 -13.05258,-29.96491 -29.12276,-29.96491 -15.92982,0 -29.19298,13.05263 -29.19298,29.96491 z m 14.24561,0 c 0,-8.63157 4.77193,-17.26315 14.94737,-17.26315 10.24562,0 14.87719,8.63158 14.87719,17.26315 0,8.63158 -4.35087,17.26316 -14.87719,17.26316 -10.80702,0 -14.94737,-8.63158 -14.94737,-17.26316 z"/>
		<path d="m 1036.222,354.07018 0.1404,0 23.0175,35.92982 13.193,0 0,-57.89474 -13.193,0 0,35.92983 -0.1403,0 -23.0176,-35.92983 -13.193,0 0,57.89474 13.193,0 0,-35.92982 z"/>
	</g>
</svg>

<?xml version="1.0" encoding="utf-8"?>
<svg xmlns="http://www.w3.org/2000/svg" xmlns:svg="http://www.w3.org/2000/svg" version="1.1" viewBox="0 0 1400 440">
	<title>The titlepage for the Standard Ebooks edition of The Napoleon of Notting Hill, by G. K. Chesterton</title>
	<g aria-label="THE NAPOLEON">
		<path d="m 289.1111,68.245613 h 18.33919 V 130 h 17.59064 V 68.245613 h 18.33918 V 52.807016 H 289.1111 Z"/>
		<path d="m 372.30555,99.029239 h 24.88889 V 130 h 17.59064 V 52.807016 H 397.19444 V 83.590642 H 372.30555 V 52.807016 H 354.71491 V 130 h 17.59064 z"/>
		<path d="M 475.15058,52.807016 H 430.98684 V 130 h 44.16374 v -15.4386 h -26.5731 V 99.029239 h 25.4503 V 83.590642 h -25.4503 V 68.245613 h 26.5731 z"/>
		<path d="m 538.4386,82.093566 h 0.18713 L 569.31579,130 h 17.59065 V 52.807016 h -17.59065 v 47.906434 h -0.18713 L 538.4386,52.807016 H 520.84795 V 130 h 17.59065 z"/>
		<path d="m 642.35526,52.807016 h -16.2807 L 594.91666,130 h 18.90059 l 5.7076,-15.4386 h 29.38012 L 654.61257,130 h 18.90059 z m 0.5614,46.31579 h -17.4035 l 8.60818,-22.45614 h 0.18714 z"/>
		<path d="M 681.43275,52.807016 V 130 h 17.59064 v -28.63158 h 10.5731 c 15.06433,0 26.38597,-8.888888 26.38597,-24.795322 0,-16 -11.32164,-23.766082 -26.38597,-23.766082 z m 17.59064,34.526317 V 66.842104 h 4.95907 c 6.92397,0 13.47368,2.339181 13.47368,10.292398 0,7.859649 -6.54971,10.198831 -13.47368,10.198831 z"/>
		<path d="m 745.28802,91.356724 c 0,22.549706 16.09357,40.046786 38.92398,40.046786 22.17544,0 38.83041,-17.49708 38.83041,-40.046786 0,-22.549708 -17.40351,-39.953217 -38.83041,-39.953217 -21.23977,0 -38.92398,17.403509 -38.92398,39.953217 z m 18.99415,0 c 0,-11.508772 6.36258,-23.017544 19.92983,-23.017544 13.66082,0 19.83626,11.508772 19.83626,23.017544 0,11.508776 -5.80117,23.017546 -19.83626,23.017546 -14.40936,0 -19.92983,-11.50877 -19.92983,-23.017546 z"/>
		<path d="M 853.39476,52.807016 H 835.80412 V 130 h 44.16374 v -15.4386 h -26.5731 z"/>
		<path d="M 937.78219,52.807016 H 893.61845 V 130 h 44.16374 v -15.4386 h -26.5731 V 99.029239 h 25.45029 V 83.590642 H 911.20909 V 68.245613 h 26.5731 z"/>
		<path d="m 949.43276,91.356724 c 0,22.549706 16.09357,40.046786 38.92398,40.046786 22.17546,0 38.83046,-17.49708 38.83046,-40.046786 0,-22.549708 -17.4036,-39.953217 -38.83046,-39.953217 -21.23976,0 -38.92398,17.403509 -38.92398,39.953217 z m 18.99416,0 c 0,-11.508772 6.36257,-23.017544 19.92982,-23.017544 13.66086,0 19.83626,11.508772 19.83626,23.017544 0,11.508776 -5.8012,23.017546 -19.83626,23.017546 -14.40935,0 -19.92982,-11.50877 -19.92982,-23.017546 z"/>
		<path d="m 1057.5395,82.093566 h 0.1871 L 1088.4167,130 h 17.5906 V 52.807016 h -17.5906 v 47.906434 h -0.1872 l -30.69,-47.906434 h -17.5907 V 130 h 17.5907 z"/>
	</g>
	<g aria-label="OF NOTTING HILL">
		<path d="m 244.72879,191.35672 c 0,22.54971 16.09357,40.04679 38.92398,40.04679 22.17544,0 38.83041,-17.49708 38.83041,-40.04679 0,-22.5497 -17.40351,-39.95321 -38.83041,-39.95321 -21.23977,0 -38.92398,17.40351 -38.92398,39.95321 z m 18.99416,0 c 0,-11.50877 6.36257,-23.01754 19.92982,-23.01754 13.66082,0 19.83626,11.50877 19.83626,23.01754 0,11.50878 -5.80117,23.01755 -19.83626,23.01755 -14.40936,0 -19.92982,-11.50877 -19.92982,-23.01755 z"/>
		<path d="M 379.87645,152.80702 H 335.24487 V 230 h 17.59065 v -30.97076 h 24.98245 v -15.4386 h -24.98245 v -15.34503 h 27.04093 z"/>
		<path d="m 441.4174,182.09357 h 0.18713 L 472.29459,230 h 17.59064 v -77.19298 h -17.59064 v 47.90643 h -0.18713 L 441.4174,152.80702 H 423.82675 V 230 h 17.59065 z"/>
		<path d="m 502.66739,191.35672 c 0,22.54971 16.09357,40.04679 38.92398,40.04679 22.17544,0 38.83041,-17.49708 38.83041,-40.04679 0,-22.5497 -17.40351,-39.95321 -38.83041,-39.95321 -21.23977,0 -38.92398,17.40351 -38.92398,39.95321 z m 18.99415,0 c 0,-11.50877 6.36258,-23.01754 19.92983,-23.01754 13.66082,0 19.83626,11.50877 19.83626,23.01754 0,11.50878 -5.80117,23.01755 -19.83626,23.01755 -14.40936,0 -19.92983,-11.50877 -19.92983,-23.01755 z"/>
		<path d="m 585.39401,168.24561 h 18.33918 V 230 h 17.59065 v -61.75439 h 18.33918 v -15.43859 h -54.26901 z"/>
		<path d="m 647.41156,168.24561 h 18.33918 V 230 h 17.59064 v -61.75439 h 18.33918 v -15.43859 h -54.269 z"/>
		<path d="M 730.60598,152.80702 H 713.01534 V 230 h 17.59064 z"/>
		<path d="m 764.48028,182.09357 h 0.18713 L 795.35747,230 h 17.59065 v -77.19298 h -17.59065 v 47.90643 h -0.18713 L 764.48028,152.80702 H 746.88963 V 230 h 17.59065 z"/>
		<path d="m 898.99342,186.77193 h -35.64913 v 13.56725 h 17.77778 c 0,9.45029 -8.32748,14.87719 -16.74854,14.87719 -10.8538,0 -19.64912,-10.66666 -19.64912,-23.76608 0,-13.38012 8.79532,-24.14035 19.64912,-24.14035 6.83041,0 12.72515,2.71345 17.21638,9.91813 l 11.50877,-12.63158 c -6.73684,-8.14035 -16.18713,-13.19298 -29.75439,-13.19298 -21.7076,0 -37.61403,17.87134 -37.61403,40.04678 0,22.08187 16.8421,39.95322 37.61403,39.95322 15.1579,0 31.4386,-8.32749 35.64913,-27.88304 z"/>
		<path d="m 959.85308,199.02924 h 24.88889 V 230 h 17.59063 v -77.19298 h -17.59063 v 30.78362 H 959.85308 V 152.80702 H 942.26244 V 230 h 17.59064 z"/>
		<path d="m 1036.125,152.80702 h -17.5907 V 230 h 17.5907 z"/>
		<path d="m 1069.9993,152.80702 h -17.5907 V 230 h 44.1638 v -15.4386 h -26.5731 z"/>
		<path d="m 1127.8136,152.80702 h -17.5907 V 230 h 44.1638 v -15.4386 h -26.5731 z"/>
	</g>
	<g aria-label="G. K. CHESTERTON">
		<path d="m 379.7659,357.57895 h -26.73684 v 10.17544 h 13.33333 c 0,7.08772 -6.24561,11.15789 -12.5614,11.15789 -8.14035,0 -14.73684,-8 -14.73684,-17.82456 0,-10.03509 6.59649,-18.10526 14.73684,-18.10526 5.12281,0 9.54386,2.03508 12.91228,7.43859 l 8.63158,-9.47368 c -5.05263,-6.10526 -12.14035,-9.89474 -22.31579,-9.89474 -16.2807,0 -28.21053,13.40351 -28.21053,30.03509 0,16.5614 12.63158,29.96491 28.21053,29.96491 11.36842,0 23.57895,-6.24561 26.73684,-20.91228 z"/>
		<path d="m 398.52906,374.98246 c -4.42105,0 -8,3.57894 -8,8.07017 0,4.42105 3.57895,8 8,8 4.49123,0 8.07017,-3.57895 8.07017,-8 0,-4.49123 -3.57894,-8.07017 -8.07017,-8.07017 z"/>
		<path d="m 496.9534,390 -26.94737,-30.45614 23.29825,-27.4386 h -16 l -19.85965,23.64913 V 332.10526 H 444.25165 V 390 h 13.19298 V 365.4386 L 478.77796,390 Z"/>
		<path d="m 512.48738,374.98246 c -4.42105,0 -8,3.57894 -8,8.07017 0,4.42105 3.57895,8 8,8 4.49123,0 8.07018,-3.57895 8.07018,-8 0,-4.49123 -3.57895,-8.07017 -8.07018,-8.07017 z"/>
		<path d="m 586.82402,378.07018 c -13.26316,0 -19.08772,-9.26316 -19.08772,-17.05264 0,-7.71929 5.82456,-16.98245 19.08772,-16.98245 6.73684,0 11.36842,3.57895 11.36842,3.57895 l 5.61403,-11.22807 c 0,0 -6.45614,-5.33334 -19.01754,-5.33334 -16.42105,0 -31.36842,13.47369 -31.36842,30.10527 0,16.5614 15.01754,29.89473 31.36842,29.89473 12.5614,0 19.01754,-5.33333 19.01754,-5.33333 l -5.61403,-11.22807 c 0,0 -4.63158,3.57895 -11.36842,3.57895 z"/>
		<path d="m 627.11567,366.77193 h 18.66666 V 390 h 13.19299 v -57.89474 h -13.19299 v 23.08772 H 627.11567 V 332.10526 H 613.92269 V 390 h 13.19298 z"/>
		<path d="M 705.49944,332.10526 H 672.37663 V 390 h 33.12281 v -11.57895 h -19.92982 v -11.64912 h 19.08772 v -11.57895 h -19.08772 v -11.50877 h 19.92982 z"/>
		<path d="m 739.41721,331.05263 c -9.33333,0 -18.87719,6.8772 -18.87719,17.68421 0,6.03509 4.07017,11.4386 11.01754,14.8772 6.8772,3.43859 13.05263,5.33333 13.05263,9.54385 0,5.40351 -5.47368,5.68422 -8.35087,5.68422 -6.45614,0 -14.17544,-6.52632 -14.17544,-6.52632 l -6.59649,11.08772 c 0,0 8.21052,7.64912 21.75438,7.64912 11.29825,0 21.82456,-4.8421 21.82456,-18.66666 0,-7.57895 -7.08771,-13.05264 -13.54385,-15.78948 -6.5965,-2.80702 -12.07018,-5.12281 -12.07018,-8.35088 0,-3.15789 2.38596,-5.19298 6.87719,-5.19298 5.96491,0 11.7193,4 11.7193,4 l 5.33333,-10.52631 c 0,0 -7.43859,-5.47369 -17.96491,-5.47369 z"/>
		<path d="m 763.15735,343.68421 h 13.75439 V 390 h 13.19298 v -46.31579 h 13.75439 v -11.57895 h -40.70176 z"/>
		<path d="m 846.73299,332.10526 h -33.1228 V 390 h 33.1228 v -11.57895 h -19.92982 v -11.64912 h 19.08772 v -11.57895 h -19.08772 v -11.50877 h 19.92982 z"/>
		<path d="M 859.31743,332.10526 V 390 h 13.19298 V 367.12281 L 890.19462,390 h 16.77193 l -19.92982,-23.92982 c 7.08772,-2.24562 11.85965,-8.07018 11.85965,-16.77193 0,-11.36842 -8.14035,-17.19299 -18.8772,-17.19299 z m 13.19298,25.68421 v -15.15789 h 1.54386 c 4.98246,0 10.94737,0.35088 10.94737,7.57895 0,7.22807 -5.96491,7.57894 -10.94737,7.57894 z"/>
		<path d="M 908.22861,343.68421 H 921.983 V 390 h 13.19298 v -46.31579 h 13.75438 v -11.57895 h -40.70175 z"/>
		<path d="m 953.89196,361.01754 c 0,16.91228 12.07017,30.03509 29.19298,30.03509 16.63158,0 29.12276,-13.12281 29.12276,-30.03509 0,-16.91228 -13.05258,-29.96491 -29.12276,-29.96491 -15.92982,0 -29.19298,13.05263 -29.19298,29.96491 z m 14.24561,0 c 0,-8.63157 4.77193,-17.26315 14.94737,-17.26315 10.24562,0 14.87719,8.63158 14.87719,17.26315 0,8.63158 -4.35087,17.26316 -14.87719,17.26316 -10.80702,0 -14.94737,-8.63158 -14.94737,-17.26316 z"/>
		<path d="m 1036.222,354.07018 h 0.1404 L 1059.3799,390 h 13.193 v -57.89474 h -13.193 v 35.92983 h -0.1403 l -23.0176,-35.92983 h -13.193 V 390 h 13.193 z"/>
	</g>
</svg>
